public/images/logos/logo-petsmart.svg

<svg width="482" height="122" viewBox="0 0 482 122" fill="none" xmlns="http://www.w3.org/2000/svg">
<path d="M240.163 22.0596C240.163 24.2064 239.741 26.3324 238.92 28.316C238.098 30.2996 236.894 32.102 235.377 33.6203C233.859 35.1385 232.057 36.3429 230.073 37.1646C228.09 37.9863 225.964 38.4092 223.817 38.4092C221.67 38.4092 219.545 37.9863 217.561 37.1646C215.578 36.3429 213.776 35.1385 212.258 33.6203C210.74 32.102 209.536 30.2996 208.715 28.316C207.894 26.3324 207.471 24.2064 207.472 22.0596C207.471 19.9127 207.894 17.7868 208.715 15.8031C209.536 13.8195 210.74 12.0171 212.258 10.4989C213.776 8.98061 215.578 7.77623 217.561 6.95453C219.545 6.13283 221.67 5.7099 223.817 5.7099C225.964 5.7099 228.09 6.13283 230.073 6.95453C232.057 7.77623 233.859 8.98061 235.377 10.4989C236.894 12.0171 238.098 13.8195 238.92 15.8031C239.741 17.7868 240.163 19.9127 240.163 22.0596Z" fill="white"/>
<path d="M22.6863 103.886L26.3079 38.9738L51.3552 43.3542C60.1689 44.8956 66.5076 47.9143 70.3716 52.4105C74.2355 56.9067 75.9382 63.2635 75.4798 71.4809C75.0526 79.1367 72.9087 84.4104 69.0482 87.302C65.1875 90.1937 59.2751 90.9431 51.311 89.5503L44.7406 88.4012L43.6719 107.556L22.6863 103.886ZM46.3663 60.7035L45.7627 71.5222L49.028 72.0932C51.019 72.4414 52.5715 72.2428 53.6853 71.4974C54.7991 70.752 55.4039 69.5221 55.4996 67.8077C55.5952 66.0933 55.1256 64.6606 54.0908 63.5095C53.0559 62.3585 51.5695 61.6135 49.6316 61.2746L46.3663 60.7035Z" fill="white"/>
<path d="M77.1502 111.995L79.2825 49.0111L119.064 52.145L118.485 69.2247L99.6717 67.7426L99.4663 73.8087L116.533 75.1531L115.987 91.2864L98.9201 89.9419L98.6958 96.5673L117.997 98.0878L117.419 115.168L77.1502 111.995Z" fill="white"/>
<path d="M133.684 114.661L134.495 73.1275L123.228 72.7896L123.623 52.5923L166.385 53.8748L165.99 74.0721L154.723 73.7342L153.911 115.267L133.684 114.661Z" fill="white"/>
<path d="M176.801 108.362L182.714 91.0881C185.941 93.0714 188.798 94.4917 191.284 95.3492C193.771 96.2067 196.069 96.573 198.181 96.4481C199.662 96.3605 200.811 96.0105 201.628 95.398C202.445 94.7856 202.825 93.9995 202.768 93.0396C202.669 91.3668 200.468 90.2172 196.166 89.591C194.777 89.3704 193.693 89.2005 192.916 89.0814C188.353 88.2504 184.797 86.5068 182.245 83.8506C179.694 81.1945 178.295 77.7822 178.049 73.6137C177.666 67.1417 179.672 61.7393 184.066 57.4064C188.461 53.0737 194.416 50.6851 201.93 50.2407C205.385 50.0364 208.812 50.2879 212.212 50.995C215.611 51.7022 219.065 52.8739 222.574 54.5102L216.924 70.6544C214.749 69.242 212.589 68.1933 210.443 67.5083C208.297 66.8234 206.237 66.5393 204.263 66.656C202.754 66.7452 201.604 67.0678 200.811 67.6237C200.018 68.1798 199.649 68.9103 199.702 69.8152C199.803 71.5155 202.894 72.8326 208.976 73.7663C209.949 73.929 210.699 74.0498 211.227 74.1286C215.423 74.8162 218.799 76.5292 221.355 79.2676C223.911 82.0061 225.31 85.4184 225.552 89.5045C225.946 96.1686 223.861 101.755 219.298 106.262C214.735 110.77 208.6 113.252 200.894 113.708C196.945 113.941 192.963 113.613 188.947 112.722C184.932 111.831 180.883 110.378 176.801 108.362Z" fill="white"/>
<path d="M280.075 104.326L277.906 80.8753C277.771 79.065 277.637 77.2614 277.502 75.4647C277.368 73.668 277.256 71.8613 277.169 70.0446C276.953 71.7933 276.65 73.6562 276.259 75.6335C275.868 77.6107 275.39 79.7296 274.823 81.99L268.872 105.847L257.914 107.335L252.102 85.0757C251.525 82.9706 251.053 80.9809 250.685 79.1066C250.317 77.2324 250.031 75.4495 249.826 73.7578C249.704 75.6304 249.576 77.4764 249.442 79.2959C249.308 81.1154 249.169 82.9494 249.023 84.7978L246.711 108.857L228.646 111.31L237.579 50.1612L256.589 47.5795L260.186 61.9113C260.301 62.3597 260.474 63.0321 260.704 63.9287C262.226 69.9723 263.156 74.9908 263.494 78.9843L263.809 78.9415C264.096 76.3642 264.525 73.604 265.093 70.6609C265.662 67.718 266.419 64.3946 267.363 60.6909L271.223 45.5922L290.198 43.0152L298.14 101.873L280.075 104.326Z" fill="white"/>
<path d="M326.131 78.6935L333.798 78.5333L332.243 71.7698C331.483 68.3468 330.966 65.7101 330.692 63.8599C330.417 62.0097 330.247 60.2665 330.182 58.6302L329.867 58.6368C329.792 60.276 329.612 62.0265 329.326 63.8884C329.041 65.7503 328.507 68.4089 327.727 71.8642L326.131 78.6935ZM301.629 100.985L320.084 40.664L340.6 40.2353L358.344 99.8004L338.528 100.214L336.906 92.7154L323.007 93.0058L321.409 100.572L301.629 100.985Z" fill="white"/>
<path d="M383.045 57.9158L383.005 69.323L386.268 69.4531C388.257 69.5325 389.791 69.1083 390.869 68.1806C391.946 67.2529 392.489 65.8849 392.495 64.0768C392.501 62.2155 391.969 60.7649 390.899 59.7248C389.828 58.6849 388.297 58.1253 386.308 58.0459L383.045 57.9158ZM362.36 100.453L362.565 42.0604L388.907 43.1106C396.547 43.4153 402.378 45.3364 406.398 48.8741C410.418 52.4119 412.417 57.3583 412.395 63.7133C412.38 67.8615 411.353 71.2379 409.315 73.8426C407.276 76.4473 404.531 77.9069 401.081 78.2214L416.556 102.613L393.079 101.677L382.96 82.0066L382.892 101.271L362.36 100.453Z" fill="white"/>
<path d="M426.264 105.855L427.076 65.5163L415.809 63.9144L416.204 44.2977L458.965 50.3772L458.571 69.9939L447.303 68.392L446.491 108.731L426.264 105.855Z" fill="white"/>
<path fill-rule="evenodd" clip-rule="evenodd" d="M73.4407 23.6941C124.801 0.828376 154.984 15.0249 171.512 53.1156C137.458 13.3015 105.351 16.3262 73.4407 23.6941Z" fill="white"/>
<path fill-rule="evenodd" clip-rule="evenodd" d="M198.482 22.8768C178.428 39.5914 177.226 49.2363 173.964 59.6537C182.31 48.0139 191.535 38.1311 204.203 35.1357C198.813 31.0494 199.981 26.9631 198.482 22.8768Z" fill="white"/>
<path fill-rule="evenodd" clip-rule="evenodd" d="M213.193 20.425C215.702 8.61162 222.816 10.6104 229.538 11.4351C223.714 13.6808 217.007 14.1595 213.193 20.425Z" fill="black"/>
</svg>

<svg xmlns="http://www.w3.org/2000/svg" width="482" height="122" fill="none" viewBox="0 0 482 122"><path fill="#fff" d="M240.163 22.06a16.36 16.36 0 0 1-4.786 11.56 16.344 16.344 0 0 1-26.662-5.304 16.3 16.3 0 0 1-1.243-6.256 16.34 16.34 0 0 1 10.089-15.105 16.347 16.347 0 0 1 22.602 15.105M22.686 103.886l3.622-64.912 25.047 4.38q13.221 2.312 19.017 9.057 5.796 6.744 5.108 19.07-.64 11.484-6.432 15.821-5.79 4.338-17.737 2.248l-6.57-1.149-1.07 19.155zm23.68-43.182-.603 10.818 3.265.571q2.987.523 4.657-.596 1.671-1.118 1.815-3.69.143-2.57-1.41-4.297-1.551-1.727-4.458-2.235zm30.784 51.291 2.132-62.984 39.782 3.134-.579 17.08-18.813-1.482-.206 6.066 17.067 1.344-.546 16.133-17.067-1.344-.224 6.625 19.301 1.52-.578 17.081zm56.534 2.666.811-41.533-11.267-.338.395-20.198 42.762 1.283-.395 20.197-11.267-.338-.812 41.533zm43.117-6.299 5.913-17.274q4.84 2.975 8.57 4.261t6.897 1.1q2.221-.132 3.447-1.051t1.14-2.358q-.149-2.51-6.602-3.449-2.084-.33-3.25-.51-6.844-1.245-10.671-5.23-3.827-3.984-4.196-10.237-.574-9.708 6.017-16.208 6.593-6.498 17.864-7.165a39 39 0 0 1 10.282.754q5.099 1.06 10.362 3.515l-5.65 16.144q-3.262-2.117-6.481-3.146t-6.18-.852q-2.263.135-3.452.968-1.189.834-1.109 2.191.151 2.55 9.274 3.951 1.46.245 2.251.363 6.294 1.03 10.128 5.139 3.834 4.107 4.197 10.236.59 9.998-6.254 16.758-6.845 6.762-18.404 7.446-5.923.35-11.947-.986t-12.146-4.36m103.274-4.036-2.169-23.45-.404-5.411a204 204 0 0 1-.333-5.42 79 79 0 0 1-.91 5.588 129 129 0 0 1-1.436 6.357l-5.951 23.857-10.958 1.488-5.812-22.26a84 84 0 0 1-1.417-5.968 74 74 0 0 1-.859-5.35q-.183 2.81-.384 5.539-.2 2.73-.419 5.502l-2.312 24.059-18.065 2.453 8.933-61.149 19.01-2.581 3.597 14.331.518 2.018q2.283 9.065 2.79 15.055l.315-.042a106 106 0 0 1 1.284-8.281q.854-4.414 2.27-9.97l3.86-15.099 18.975-2.577 7.942 58.858zm46.056-25.632 7.667-.16-1.555-6.764q-1.14-5.135-1.551-7.91a49 49 0 0 1-.51-5.23l-.315.007a50 50 0 0 1-.541 5.251q-.428 2.792-1.599 7.976zm-24.502 22.291 18.455-60.321 20.516-.429L358.344 99.8l-19.816.414-1.622-7.499-13.899.29-1.598 7.567zm81.416-43.069-.04 11.407 3.263.13q2.984.12 4.601-1.272t1.626-4.104q.009-2.792-1.596-4.352-1.607-1.56-4.591-1.68zm-20.685 42.537.205-58.393 26.342 1.05q11.46.457 17.491 5.764 6.03 5.306 5.997 14.84-.023 6.222-3.08 10.129-3.059 3.906-8.234 4.378l15.475 24.392-23.477-.936-10.119-19.67-.068 19.264zm63.904 5.402.812-40.339-11.267-1.602.395-19.616 42.761 6.08-.394 19.616-11.268-1.602-.812 40.339z"/><path fill="#fff" fill-rule="evenodd" d="M73.44 23.694c51.361-22.866 81.544-8.67 98.072 29.422-34.054-39.814-66.161-36.79-98.071-29.422m125.041-.817c-20.054 16.714-21.256 26.36-24.518 36.777 8.346-11.64 17.571-21.523 30.239-24.518-5.39-4.087-4.222-8.173-5.721-12.26" clip-rule="evenodd"/><path fill="#000" fill-rule="evenodd" d="M213.193 20.425c2.509-11.813 9.623-9.815 16.345-8.99-5.824 2.246-12.531 2.724-16.345 8.99" clip-rule="evenodd"/></svg>
